64x64/apps/cantor.svg

<svg xmlns="http://www.w3.org/2000/svg" width="64" height="64" version="1.1">
 <rect style="opacity:0.2" width="56" height="56" x="4" y="5" rx="4.2" ry="4.2"/>
 <rect style="fill:#5c666b" width="56" height="56" x="4" y="4" rx="4.2" ry="4.2"/>
 <path style="opacity:0.2" d="m 32,18 a 1.50015,1.50015 0 0 0 -1.279297,0.71875 L 21.044922,34.552734 18.302734,29.755859 A 1.50015,1.50015 0 0 0 17,29 h -4.5 a 1.50015,1.50015 0 1 0 0,3 h 3.628906 l 3.56836,6.244141 a 1.50015,1.50015 0 0 0 2.582031,0.03711 L 32.841797,21 H 49 v 1.5 a 1.50015,1.50015 0 1 0 3,0 v -3 A 1.50015,1.50015 0 0 0 50.5,18 Z m 12.476562,6.978516 A 1.50015,1.50015 0 0 0 43.013672,26.275391 7,7 0 0 0 39,25 7,7 0 0 0 32,32 7,7 0 0 0 39,39 7,7 0 0 0 43.015625,37.728516 1.50015,1.50015 0 0 0 46,37.5 v -11 A 1.50015,1.50015 0 0 0 44.476562,24.978516 Z M 39,28 a 4,4 0 0 1 4,4 4,4 0 0 1 -4,4 4,4 0 0 1 -4,-4 4,4 0 0 1 4,-4 z M 13.5,41 a 1.50015,1.50015 0 1 0 0,3 h 37 a 1.50015,1.50015 0 1 0 0,-3 z m 17,5 a 1.50015,1.50015 0 1 0 0,3 h 3 a 1.50015,1.50015 0 1 0 0,-3 z"/>
 <path style="fill:#f4f4f7" d="M 32 17 A 1.50015 1.50015 0 0 0 30.720703 17.71875 L 21.044922 33.552734 L 18.302734 28.755859 A 1.50015 1.50015 0 0 0 17 28 L 12.5 28 A 1.50015 1.50015 0 1 0 12.5 31 L 16.128906 31 L 19.697266 37.244141 A 1.50015 1.50015 0 0 0 22.279297 37.28125 L 32.841797 20 L 49 20 L 49 21.5 A 1.50015 1.50015 0 1 0 52 21.5 L 52 18.5 A 1.50015 1.50015 0 0 0 50.5 17 L 32 17 z M 44.476562 23.978516 A 1.50015 1.50015 0 0 0 43.013672 25.275391 A 7 7 0 0 0 39 24 A 7 7 0 0 0 32 31 A 7 7 0 0 0 39 38 A 7 7 0 0 0 43.015625 36.728516 A 1.50015 1.50015 0 0 0 46 36.5 L 46 25.5 A 1.50015 1.50015 0 0 0 44.476562 23.978516 z M 39 27 A 4 4 0 0 1 43 31 A 4 4 0 0 1 39 35 A 4 4 0 0 1 35 31 A 4 4 0 0 1 39 27 z M 13.5 40 A 1.50015 1.50015 0 1 0 13.5 43 L 50.5 43 A 1.50015 1.50015 0 1 0 50.5 40 L 13.5 40 z M 30.5 45 A 1.50015 1.50015 0 1 0 30.5 48 L 33.5 48 A 1.50015 1.50015 0 1 0 33.5 45 L 30.5 45 z"/>
 <path style="fill:#f4f4f7;opacity:0.1" d="M 8.1992188 4 C 5.8724189 4 4 5.8724186 4 8.1992188 L 4 9.1992188 C 4 6.8724186 5.8724189 5 8.1992188 5 L 55.800781 5 C 58.127581 5 60 6.8724186 60 9.1992188 L 60 8.1992188 C 60 5.8724186 58.127581 4 55.800781 4 L 8.1992188 4 z"/>
</svg>

<svg xmlns="http://www.w3.org/2000/svg" width="64" height="64"><rect style="opacity:.2" width="56" height="56" x="4" y="5" rx="4.2" ry="4.2"/><rect style="fill:#5c666b" width="56" height="56" x="4" y="4" rx="4.2" ry="4.2"/><path style="opacity:.2" d="M32 18a1.5 1.5 0 0 0-1.28.719l-9.675 15.834-2.742-4.797A1.5 1.5 0 0 0 17 29h-4.5a1.5 1.5 0 1 0 0 3h3.629l3.568 6.244a1.5 1.5 0 0 0 2.582.037L32.842 21H49v1.5a1.5 1.5 0 1 0 3 0v-3a1.5 1.5 0 0 0-1.5-1.5zm12.477 6.979a1.5 1.5 0 0 0-1.463 1.296A7 7 0 0 0 39 25a7 7 0 0 0-7 7 7 7 0 0 0 7 7 7 7 0 0 0 4.016-1.271A1.5 1.5 0 0 0 46 37.5v-11a1.5 1.5 0 0 0-1.523-1.521zM39 28a4 4 0 0 1 4 4 4 4 0 0 1-4 4 4 4 0 0 1-4-4 4 4 0 0 1 4-4zM13.5 41a1.5 1.5 0 1 0 0 3h37a1.5 1.5 0 1 0 0-3zm17 5a1.5 1.5 0 1 0 0 3h3a1.5 1.5 0 1 0 0-3z"/><path style="fill:#f4f4f7" d="M32 17a1.5 1.5 0 0 0-1.28.719l-9.675 15.834-2.742-4.797A1.5 1.5 0 0 0 17 28h-4.5a1.5 1.5 0 1 0 0 3h3.629l3.568 6.244a1.5 1.5 0 0 0 2.582.037L32.842 20H49v1.5a1.5 1.5 0 1 0 3 0v-3a1.5 1.5 0 0 0-1.5-1.5H32zm12.477 6.979a1.5 1.5 0 0 0-1.463 1.296A7 7 0 0 0 39 24a7 7 0 0 0-7 7 7 7 0 0 0 7 7 7 7 0 0 0 4.016-1.271A1.5 1.5 0 0 0 46 36.5v-11a1.5 1.5 0 0 0-1.523-1.521zM39 27a4 4 0 0 1 4 4 4 4 0 0 1-4 4 4 4 0 0 1-4-4 4 4 0 0 1 4-4zM13.5 40a1.5 1.5 0 1 0 0 3h37a1.5 1.5 0 1 0 0-3h-37zm17 5a1.5 1.5 0 1 0 0 3h3a1.5 1.5 0 1 0 0-3h-3z"/><path style="fill:#f4f4f7;opacity:.1" d="M8.2 4A4.19 4.19 0 0 0 4 8.2v1A4.19 4.19 0 0 1 8.2 5h47.6A4.19 4.19 0 0 1 60 9.2v-1A4.19 4.19 0 0 0 55.8 4H8.2z"/></svg>
